X:1
T:Koncert d-moll na obój
T:Koncert d-moll na obój
T:cz. II Adagio
T:Tomaso Albinoni
C:Tomaso Albinoni
%%score 1 { ( 2 5 ) | ( 3 4 ) }
L:1/8
Q:1/8=75
M:3/4
K:Bb
V:1 treble nm="Oboe" snm="Ob."
V:2 treble nm="Piano" snm="P-no"
V:5 treble 
V:3 bass 
V:4 bass 
V:1
 z6 | z6 | z6 | z6 | z6 | z6 | z6 | f6- | f6 | b4 f2 | g>b e4 | d4 z2 | z6 | z6 | z6 | z6 | f6- | %17
 f6 | b4 f2 | g>b e4 | d4 g2- | gc' c'a f2- | fb bg g/=e/f/g/ | a>f bg/=e/ c'>f | d/b/a/g/ a2 g2 | %25
 f4 f2- | fb/g/ e4- | e/c/a/f/ d4- | dg/e/ c4- | c/A/f/d/ B4- | Be/c/ AA/c/ a2- | ad/B/ GB/d/ g2- | %32
 ge dc/B/ A2 | G2 B2 d3/2c/4d/4 | e6- | e2 A2 c3/2B/4c/4 | d6- | d2 BG g2 | ^c3 c d2- | db =e4 | %40
 d4 z2 | z6 | f6- | f6 | b4 f2 | g>b e4 | d4 g2- | gc' c'a f2- | fb bg ge | e3 c d2- | de d2 c2 | %51
 B4 g2- | gc' c'a f2- | fb bg ge | e3 c d2- | de d2 c2 | B6 | z6 | z6 | z6 | z6 | z6 | z6 | z6 |] %64
V:2
 B/d/f/b/ B/d/f/b/ B/d/c/B/ | F/A/c/f/ F/A/c/f/ F/A/G/F/ | G/B/d/g/ G/B/d/g/ G/B/A/G/ | %3
 D/F/B/d/ D/F/B/d/ D/F/E/D/ | E/G/c/e/ E/G/c/e/ E/G/F/E/ | B,/D/F/B/ D/F/B/d/ D/F/E/D/ | %6
 C/E/A/c/ F/A/c/f/ A/c/B/A/ | B/d/f/b/ B/d/f/b/ B/d/c/B/ | F/A/c/f/ F/A/c/f/ F/A/G/F/ | %9
 G/B/d/g/ B/d/f/b/ D/F/E/D/ | E/G/B/e/ G/B/e/g/ A/c/B/A/ | B/d/f/b/ B/d/f/b/ B/d/c/B/ | %12
 F/A/c/f/ F/A/c/f/ F/A/G/F/ | G/B/d/g/ G/B/d/g/ G/B/A/G/ | D/F/B/d/ D/F/B/d/ D/F/E/D/ | %15
 E/G/c/e/ F/A/c/f/ A/c/B/A/ | B/d/f/b/ B/d/f/b/ B/d/c/B/ | F/A/c/f/ F/A/c/f/ F/A/G/F/ | %18
 G/B/d/g/ B/d/f/b/ D/F/E/D/ | E/G/B/e/ G/B/e/g/ A/c/B/A/ | B/d/f/b/ D/F/B/d/ B/d/c/B/ | %21
 c/=e/g/c'/ F/A/c/f/ A/c/B/A/ | B/d/f/b/ G/B/=e/g/ =E/G/F/E/ | F/A/c/f/ G/B/=e/g/ A/c/B/A/ | %24
 B/d/f/b/ c/f/g/f/ c/=e/f/e/ | F/A/c/f/ F/A/c/f/ F/A/G/F/ | G/B/e/g/ G/B/e/g/ E/G/F/E/ | %27
 F/A/c/f/ B/d/f/b/ B/d/c/B/ | E/G/c/e/ G/c/e/g/ A/c/B/A/ | D/F/B/d/ D/F/B/d/ G/B/A/G/ | %30
 C/E/c/e/ F/A/c/f/ A/c/B/A/ | B,/D/G/B/ D/B/d/g/ G/B/A/G/ | e/g/a/g/ G/g/a/g/ D/^f/g/f/ | %33
 G/B/d/g/ G/B/d/g/ G/B/A/G/ | C/E/G/c/ C/E/G/c/ C/B/A/G/ | F/A/c/f/ F/A/c/f/ F/e/d/c/ | %36
 B,/D/F/B/ D/F/B/d/ D/c/B/A/ | G/B/d/g/ G/B/d/g/ G/f/=e/d/ | A/^c/=e/a/ =E/G/c/e/ F/A/G/F/ | %39
 G/B/d/g/ A/d/=e/d/ =E/^c/d/c/ | D/F/A/d/ D/F/A/d/ D/F/E/D/ | C/E/G/c/ C/E/G/c/ C/E/D/C/ | %42
 B/d/f/b/ B/d/f/b/ B/d/c/B/ | F/A/c/f/ F/A/c/f/ F/A/G/F/ | G/B/d/g/ B/d/g/b/ D/F/E/D/ | %45
 E/G/B/e/ G/B/e/g/ A/c/B/A/ | B/d/f/b/ D/F/B/d/ B/d/c/B/ | c/e/g/c'/ F/A/c/f/ A/c/B/A/ | %48
 B/d/f/b/ G/B/e/g/ E/G/F/E/ | F/A/c/e/ A/c/e/a/ B/d/c/B/ | G/B/e/g/ A/B/c/B/ F/A/B/A/ | %51
 B/d/f/b/ D/F/B/d/ B/d/c/B/ | c/e/g/c'/ F/A/c/f/ A/c/B/A/ | B/d/f/b/ G/B/e/g/ E/G/F/E/ | %54
 F/A/c/e/ A/c/e/a/ B/d/c/B/ | G/B/e/g/ A/B/c/B/ F/A/B/A/ | B/d/f/b/ B/d/f/b/ B/d/c/B/ | %57
 F/A/c/f/ F/A/c/f/ F/A/G/F/ | G/B/d/g/ G/B/d/g/ G/B/A/G/ | D/F/B/d/ D/F/B/d/ D/F/E/D/ | %60
 E/G/c/e/ E/G/c/e/ E/G/F/E/ | B,/D/F/B/ D/F/B/d/ D/F/E/D/ | E/F/G/A/ B2 GA | [DB]6 |] %64
V:3
 [B,DF][B,DF] [B,DF][B,DF] [B,DF][B,DF] | [A,C][A,C] [A,C][A,C] [A,C][A,C] | %2
 [G,B,D][G,B,D] [G,B,D][G,B,D] [E,B,E][E,B,E] | DB, B,B, F,B, | %4
 [C,G,][C,G,] [C,G,][C,G,] [C,A,][C,A,] | [D,B,][D,B,] [D,B,][D,B,] [D,B,][D,B,] | z C3- C2 | %7
 [B,D][B,DF] [B,DF][B,DF] [B,DF][B,DF] | [A,C][A,C] [A,C][A,C] [A,C][A,C] | %9
 [G,B,D][G,B,D] [D,B,][D,B,-] [B,,-B,][B,,B,] | G,G, G,2 F,2 | %11
 [B,DF][B,DF] [B,DF][B,DF] [B,DF][B,DF] | [A,C][A,C] [A,C][A,C] [A,C][A,C] | %13
 [G,B,D][G,B,D] [G,B,D][G,B,D] [E,B,E][E,B,E] | DB, B,B, F,B, | %15
 [C,G,][C,G,] [A,,C][A,,C] [F,C][F,C] | [B,D][B,DF] [B,DF][B,DF] [B,DF][B,DF] | %17
 [A,C][A,C] [A,C][A,C] [A,C][A,C] | [G,B,D][G,B,D] [D,B,][D,B,-] [B,,-B,][B,,B,] | %19
 G,G,- G,G, F,2- | F,B, B,D [B,DG][B,DG] | [A,=EG][A,EG] [A,CF][A,CF] [A,CF][A,CF] | %22
 [G,DF][G,DF] [G,B,=E][G,B,E] [C,G,B,][C,G,B,] | A,2 B,2 A,D | DD F2 =EE | %25
 [F,C][F,C] [F,C][F,C] [A,C][A,C] | [G,B,F][G,B,E] [G,B,E][G,B,E] CC | %27
 [A,CE][A,CE] [B,D][B,D] [D,B,][D,D] | [E,G,D][E,G,C] [E,G,C][E,G,C] [C,A,][C,C] | %29
 [D,F,C][D,F,B,] [D,F,B,][D,F,B,] [B,,G,][B,,B,] | [C,G,B,][C,G,B,] [F,A,][F,A,] [^F,A,][F,A,] | %31
 G,G, [B,,G,][B,,G,] [B,,G,][B,,G,] | G,2 G,2 D,2 | [G,B,][G,B,] [G,B,][G,B,] [B,D][B,D] | %34
 CC CC, E,E, | [F,A,][F,A,] [F,A,][F,A,] [A,C][A,C] | B,B, B,B,, [F,A,][F,A,] | G,2 G,3 B, | A,6 | %39
 B,B, A,4- | A,4 B,2 | C6 | [B,D][B,DF] [B,DF][B,DF] [B,DF][B,DF] | %43
 [A,C][A,C] [A,C][A,C] [A,C][A,C] | [G,B,][G,B,] [D,B,][D,B,-] [B,,-B,][B,,B,] | G,G,- G,G, F,2- | %46
 F,B, B,D [B,DG][B,DG] | [A,EG][A,EG] [A,CF][A,CF] [A,CF][A,CF] | %48
 [G,DF][G,DF] [G,B,E][G,B,E] [C,C][C,C] | A,A, A,A, D2- | DC- C4 | B,D DD [B,DG][B,DG] | %52
 [A,EG][A,EG] [A,CF][A,CF] [A,CF][A,CF] | [G,DF][G,DF] [G,B,E][G,B,E] [C,C][C,C] | A,A, A,A, D2- | %55
 DC- C4 | [B,,B,][B,D] [B,DF][B,DF] [B,DF][B,DF] | [A,C][A,C] [A,C][A,C] [A,C][A,C] | %58
 [G,B,D][B,D] [B,D][B,D] [E,B,E][E,B,E] | DB, B,B, F,B, | [C,G,][C,G,] [C,G,][C,G,] [C,A,][C,A,] | %61
 [D,B,][D,B,] [D,B,][D,B,] [D,B,][D,B,] | CE B,2 C2 | [B,,B,]6 |] %64
V:4
 x6 | x6 | x6 | B,,6 | x6 | x6 | E,2 A,F, F,,F, | x6 | x6 | x6 | E,E, E,C, F,F,, | x6 | x6 | x6 | %14
 B,,6 | x6 | x6 | x6 | x6 | E,E, C,C, F,F,, | B,,2 B,B, z2 | x6 | x6 | F,A, G,C- CF, | B,D CB, CC | %25
 x6 | x6 | x6 | x6 | x6 | x6 | x6 | C,C, G,,C, D,D,, | x6 | x6 | x6 | x6 | G,G, G,B,, B,,G,, | %38
 A,,A, G,G, F,D, | G,G, A,G, A,A,, | D,D, D,D, B,,B,, | E,E, C,C, A,,F, | x6 | x6 | x6 | %45
 E,E, E,C, F,F,, | B,,2 B,B, z2 | x6 | x6 | F,F, F,F, B,D, | E,2 F,E, F,F,, | B,,B, B,B, z2 | x6 | %53
 x6 | F,F, F,F, B,D, | E,2 F,E, F,F,, | x6 | x6 | x6 | B,,6 | x6 | x6 | C,C, D,D, E,F, | x6 |] %64
V:5
 x6 | x6 | x6 | x6 | x6 | x6 | x6 | x6 | x6 | x6 | x6 | x6 | x6 | x6 | x6 | x6 | x6 | x6 | x6 | %19
 x6 | x6 | x6 | x6 | x6 | x6 | x6 | x6 | x6 | x6 | x6 | x6 | x6 | x6 | x6 | x6 | x6 | x6 | x6 | %38
 x6 | x6 | x6 | x6 | x6 | x6 | x6 | x6 | x6 | x6 | x6 | x6 | x6 | x6 | x6 | x6 | x6 | x6 | x6 | %57
 x6 | x6 | x6 | x6 | x6 | E2 DF E2 | x6 |] %64

